app/img/flag-about.svg

<svg width="32" height="32" viewBox="0 0 32 32" fill="none" xmlns="http://www.w3.org/2000/svg">
<path d="M27.1137 6.3054C26.9447 6.1374 26.7457 6.0529 26.5157 6.0529C26.4012 6.0529 26.1597 6.1469 25.7927 6.3324C25.4252 6.5184 25.0352 6.7254 24.6247 6.9564C24.2132 7.1859 23.7262 7.3939 23.1642 7.5799C22.6027 7.7654 22.0827 7.8594 21.6042 7.8594C21.1622 7.8594 20.7722 7.7754 20.4362 7.6069C19.3217 7.0849 18.3522 6.6954 17.5292 6.4384C16.7062 6.1819 15.8212 6.0529 14.8737 6.0529C13.2377 6.0529 11.3742 6.5849 9.28524 7.6469C8.85424 7.8619 8.54524 8.0284 8.34524 8.1504L8.14674 6.6949C8.59524 6.3054 8.88474 5.7379 8.88474 5.0974C8.88474 3.9239 7.93374 2.9729 6.76024 2.9729C5.58674 2.9729 4.63574 3.9239 4.63574 5.0974C4.63574 5.8629 5.04474 6.5284 5.65174 6.9024L8.52174 27.9474C8.60724 28.5739 9.14324 29.0284 9.75874 29.0284C9.81474 29.0284 9.87174 29.0249 9.92924 29.0174C10.6132 28.9234 11.0922 28.2939 10.9987 27.6099L9.84524 19.1514C11.9382 18.1129 13.7487 17.5894 15.2717 17.5894C15.9182 17.5894 16.5487 17.6859 17.1632 17.8809C17.7782 18.0764 18.2897 18.2884 18.6967 18.5179C19.1037 18.7479 19.5842 18.9609 20.1367 19.1549C20.6902 19.3499 21.2367 19.4474 21.7762 19.4474C23.1392 19.4474 24.7717 18.9339 26.6742 17.9074C26.9132 17.7834 27.0882 17.6614 27.1987 17.5419C27.3092 17.4224 27.3647 17.2524 27.3647 17.0314V6.9029C27.3647 6.6734 27.2812 6.4739 27.1137 6.3054Z" fill="#F0145A"/>
</svg>

<svg xmlns="http://www.w3.org/2000/svg" width="32" height="32" fill="none"><path fill="#F0145A" d="M27.114 6.305a.82.82 0 0 0-.598-.252c-.115 0-.356.094-.723.28-.368.185-.758.392-1.168.623-.412.23-.899.438-1.46.624-.562.185-1.082.28-1.56.28-.443 0-.833-.085-1.169-.253-1.114-.522-2.084-.912-2.907-1.169a8.879 8.879 0 0 0-2.655-.385c-1.636 0-3.5.532-5.589 1.594-.43.215-.74.381-.94.503l-.198-1.455a2.11 2.11 0 0 0 .738-1.598 2.124 2.124 0 1 0-4.25 0c0 .766.41 1.431 1.017 1.805l2.87 21.045a1.25 1.25 0 0 0 2.477-.337L9.845 19.15c2.093-1.038 3.904-1.562 5.427-1.562.646 0 1.277.097 1.891.292.615.195 1.127.407 1.534.637.407.23.887.443 1.44.637.553.195 1.1.292 1.64.292 1.362 0 2.995-.513 4.897-1.54.24-.124.414-.246.525-.365.11-.12.166-.29.166-.51V6.901a.82.82 0 0 0-.251-.597Z"/></svg>
